dist/img/partners/partner_7.svg

<svg width="221" height="65" viewBox="0 0 221 65" fill="none" xmlns="http://www.w3.org/2000/svg">
<g clip-path="url(#clip0_306_3416)">
<path d="M13.5291 43.3337C12.3677 42.1685 11.4489 40.7871 10.8254 39.2685C10.2019 37.7498 9.88584 36.1238 9.89542 34.4836C9.8912 32.8434 10.216 31.2188 10.8507 29.7049C11.4855 28.1909 12.4175 26.818 13.5923 25.6663C14.0955 25.2216 14.5022 24.6795 14.7873 24.0732C15.0725 23.4669 15.2301 22.8091 15.2506 22.1401C15.2711 21.4711 15.1541 20.805 14.9066 20.1825C14.6591 19.5601 14.2865 18.9944 13.8114 18.5201C13.3364 18.0458 12.7689 17.6729 12.1438 17.4242C11.5187 17.1755 10.8492 17.0562 10.1761 17.0737C9.50306 17.0912 8.84068 17.2451 8.22953 17.5259C7.61837 17.8067 7.07131 18.2086 6.62184 18.707C2.40002 22.8791 0.018144 28.5474 0.000103229 34.4651C-0.0179376 40.3829 2.32934 46.0654 6.52564 50.2629C6.97365 50.7605 7.51891 51.1623 8.12819 51.4436C8.73746 51.7249 9.39799 51.8799 10.0695 51.8992C10.741 51.9185 11.4094 51.8016 12.034 51.5557C12.6586 51.3098 13.2263 50.9401 13.7025 50.4689C14.1786 49.9978 14.5532 49.4353 14.8036 48.8155C15.0539 48.1958 15.1746 47.5319 15.1584 46.8643C15.1421 46.1966 14.9893 45.5393 14.7092 44.9323C14.4291 44.3253 14.0275 43.7814 13.5291 43.3337Z" fill="#FFDA00"/>
<path d="M13.5908 25.6658C15.9583 23.3358 19.1586 22.0341 22.49 22.0458C25.8215 22.0576 29.0124 23.382 31.3632 25.7286C31.8096 26.2315 32.3548 26.6383 32.9652 26.924C33.5756 27.2097 34.2384 27.3683 34.9127 27.39C35.5871 27.4117 36.2587 27.296 36.8864 27.0501C37.5142 26.8043 38.0847 26.4334 38.5629 25.9602C39.0411 25.4871 39.4169 24.9217 39.6672 24.2989C39.9175 23.676 40.037 23.0089 40.0183 22.3384C39.9997 21.668 39.8433 21.0084 39.5588 20.4003C39.2743 19.7921 38.8676 19.2483 38.3639 18.8021C36.2937 16.7177 33.8297 15.0603 31.1134 13.9252C28.3971 12.7901 25.482 12.1996 22.5354 12.1877C19.5889 12.1758 16.669 12.7426 13.9435 13.8557C11.2179 14.9687 8.74045 16.6061 6.65329 18.6737C6.14824 19.116 5.73931 19.6562 5.45152 20.2611C5.16374 20.866 5.00315 21.523 4.97959 22.1917C4.95604 22.8605 5.07 23.5269 5.31452 24.1504C5.55903 24.7738 5.92895 25.3411 6.40164 25.8175C6.87433 26.2939 7.43984 26.6694 8.06356 26.9211C8.68728 27.1727 9.3561 27.2952 10.0291 27.281C10.7021 27.2668 11.365 27.1162 11.9775 26.8385C12.5899 26.5607 13.1388 26.1617 13.5908 25.6658Z" fill="#67B3FF"/>
<path d="M31.3346 43.3959C30.163 44.5528 28.7733 45.4685 27.2452 46.0907C25.717 46.7128 24.0805 47.0292 22.4291 47.0217C20.7782 47.0242 19.1434 46.6992 17.6204 46.0658C16.0974 45.4324 14.7168 44.5034 13.5594 43.3331C13.1121 42.8328 12.5668 42.4286 11.9569 42.1451C11.347 41.8617 10.6852 41.7049 10.0123 41.6845C9.3393 41.6641 8.66922 41.7805 8.04306 42.0265C7.4169 42.2725 6.84784 42.643 6.37072 43.1153C5.89361 43.5875 5.51848 44.1516 5.2683 44.773C5.01812 45.3944 4.89815 46.06 4.91575 46.729C4.93335 47.3981 5.08815 48.0566 5.37065 48.6641C5.65316 49.2717 6.05743 49.8155 6.55873 50.2623C8.63243 52.3466 11.0995 54.0036 13.8186 55.1383C16.5377 56.273 19.4553 56.863 22.4043 56.8747C25.3532 56.8864 28.2755 56.3194 31.0036 55.2063C33.7317 54.0932 36.212 52.4558 38.3023 50.388C38.7641 49.9332 39.1313 49.3924 39.3829 48.7966C39.6345 48.2007 39.7656 47.5614 39.7687 46.9151C39.7717 46.2689 39.6467 45.6284 39.4008 45.0302C39.1548 44.432 38.7928 43.8878 38.3353 43.4287C37.8778 42.9696 37.3338 42.6046 36.7344 42.3545C36.1349 42.1043 35.4918 41.974 34.8418 41.971C34.1917 41.9679 33.5474 42.0922 32.9456 42.3367C32.3439 42.5812 31.7964 42.9411 31.3346 43.3959Z" fill="#EB5A68"/>
<path d="M13.5922 25.6656C12.8988 26.3541 12.0153 26.8224 11.0537 27.011C10.0922 27.1996 9.09591 27.1001 8.19134 26.725C7.28678 26.35 6.51465 25.7163 5.97292 24.9043C5.43118 24.0924 5.14423 23.1388 5.14848 22.1645C5.15274 21.1902 5.44799 20.2391 5.99679 19.4319C6.5456 18.6246 7.32322 17.9976 8.23103 17.6304C9.13883 17.2631 10.1359 17.1722 11.0958 17.3691C12.0557 17.566 12.9351 18.0418 13.6225 18.7363C14.5383 19.6616 15.049 20.9092 15.0433 22.2071C15.0377 23.5051 14.5161 24.7483 13.5922 25.6656Z" fill="#47A1FF"/>
<path d="M13.4971 50.2625C12.8034 50.9508 11.9197 51.4187 10.958 51.607C9.99641 51.7952 9.00021 51.6953 8.09579 51.3199C7.19137 50.9444 6.4195 50.3104 5.87809 49.4983C5.33667 48.6861 5.05011 47.7324 5.05474 46.7581C5.05938 45.7838 5.35501 44.8329 5.90413 44.0258C6.45326 43.2188 7.23113 42.5921 8.13908 42.2252C9.04703 41.8583 10.0441 41.7678 11.0039 41.965C11.9637 42.1623 12.843 42.6385 13.5301 43.3333C14.4455 44.2589 14.9558 45.5067 14.9496 46.8047C14.9434 48.1027 14.4213 49.3456 13.4971 50.2625Z" fill="#D5465F"/>
<path d="M60.38 39.3033C61.8065 38.2322 61.9961 38.8306 63.2 40.0274C63.802 40.6257 65.4484 41.6668 64.3709 42.5466C62.1226 44.3718 60.0941 45.1915 57.2246 45.1915C50.7296 45.1614 46.1367 40.3416 46.505 33.9479C46.6617 31.0844 47.8024 28.3739 50.0535 26.5159C52.1122 24.7836 54.6766 24.0294 57.3703 24.0923C58.6905 24.0884 59.9983 24.3447 61.2183 24.8464C62.0446 25.143 62.8232 25.5572 63.5299 26.076C64.9564 27.1689 64.2912 27.8083 63.1808 28.9094C62.9279 29.1608 62.675 29.4149 62.4524 29.6663C61.8835 30.2319 61.5014 30.6417 60.7428 30.1062C59.286 29.0979 57.4445 28.5624 55.7046 29.0132C50.0975 30.4286 50.3503 40.3498 57.2273 40.3826C58.3673 40.3677 59.4724 39.9893 60.38 39.3033ZM216.245 45.3145C216.02 45.3155 215.797 45.2723 215.589 45.1874C215.381 45.1024 215.192 44.9773 215.032 44.8193C214.873 44.6613 214.747 44.4735 214.661 44.2668C214.575 44.0601 214.532 43.8386 214.532 43.6149L214.629 21.6332C214.627 21.4095 214.671 21.1879 214.756 20.9811C214.842 20.7742 214.968 20.5863 215.127 20.428C215.286 20.2698 215.475 20.1444 215.682 20.0591C215.89 19.9737 216.113 19.9302 216.338 19.9309H218.177C218.402 19.9302 218.625 19.9738 218.833 20.0593C219.042 20.1448 219.23 20.2705 219.389 20.429C219.548 20.5875 219.674 20.7758 219.76 20.983C219.845 21.1901 219.888 21.412 219.887 21.6359L219.79 43.6177C219.792 43.8412 219.748 44.0626 219.663 44.2693C219.577 44.476 219.451 44.6638 219.292 44.8218C219.133 44.9799 218.944 45.105 218.736 45.19C218.528 45.2751 218.306 45.3183 218.081 45.3172L216.245 45.3145ZM206.625 42.7652C204.629 44.6232 202.727 45.5986 199.907 45.5986C194.206 45.5658 191.48 40.8744 191.48 35.6146L191.513 26.6716C191.512 26.4481 191.556 26.2267 191.642 26.0202C191.728 25.8136 191.854 25.626 192.013 25.4682C192.172 25.3105 192.361 25.1856 192.569 25.1009C192.778 25.0162 193 24.9734 193.225 24.9748H195.064C195.289 24.9737 195.512 25.017 195.72 25.102C195.927 25.187 196.116 25.3122 196.275 25.4702C196.434 25.6282 196.56 25.816 196.646 26.0227C196.731 26.2294 196.775 26.4509 196.774 26.6743L196.743 35.6173C196.743 38.5464 198.327 40.8443 201.433 40.8443C204.538 40.8443 206.438 38.2623 206.468 35.3796V32.1855C206.443 32.0614 206.433 31.9349 206.438 31.8084L206.468 26.7372C206.467 26.5137 206.51 26.2922 206.596 26.0855C206.681 25.8788 206.807 25.6911 206.966 25.533C207.125 25.375 207.314 25.2499 207.522 25.1648C207.73 25.0798 207.953 25.0366 208.178 25.0377H209.992C210.216 25.0366 210.439 25.0798 210.647 25.1648C210.855 25.2499 211.044 25.375 211.203 25.533C211.362 25.6911 211.488 25.8788 211.573 26.0855C211.659 26.2922 211.702 26.5137 211.701 26.7372L211.641 43.6177C211.636 44.0643 211.454 44.491 211.133 44.804C210.813 45.117 210.381 45.2908 209.931 45.2871H208.378C207.937 45.2734 207.518 45.0932 207.206 44.783C206.894 44.4728 206.713 44.0561 206.699 43.6177L206.625 42.7652ZM184.754 25.0377H188.302C188.527 25.0409 188.75 25.0883 188.956 25.1773C189.162 25.2662 189.349 25.395 189.505 25.556C189.661 25.7171 189.784 25.9073 189.866 26.1156C189.947 26.324 189.987 26.5464 189.982 26.77V27.934C189.978 28.3827 189.798 28.8121 189.479 29.1299C189.16 29.4477 188.729 29.6285 188.278 29.6335H184.721L184.658 43.522C184.659 43.7457 184.615 43.9673 184.53 44.1741C184.444 44.3809 184.319 44.5689 184.16 44.7272C184.001 44.8854 183.812 45.0108 183.604 45.0961C183.396 45.1815 183.173 45.225 182.948 45.2243H181.112C180.887 45.225 180.664 45.1815 180.456 45.0962C180.248 45.0109 180.059 44.8855 179.9 44.7273C179.741 44.5691 179.614 44.3812 179.529 44.1743C179.443 43.9675 179.399 43.7458 179.4 43.522L179.463 24.3136C179.463 20.1249 181.871 16.816 186.181 16.439C186.307 16.439 186.4 16.4089 186.527 16.4089C186.78 16.3925 187.035 16.3925 187.288 16.4089H188.937C189.162 16.4121 189.384 16.4595 189.59 16.5482C189.797 16.637 189.983 16.7655 190.139 16.9263C190.295 17.087 190.418 17.2769 190.5 17.4849C190.582 17.693 190.622 17.9151 190.617 18.1385V19.2096C190.614 19.6597 190.433 20.0906 190.113 20.4091C189.793 20.7277 189.36 20.9082 188.907 20.9118H187.577C185.548 20.9118 184.694 22.4529 184.661 24.3437L184.754 25.0377ZM172.02 24.9748H175.909C176.358 24.9792 176.788 25.1606 177.102 25.4792C177.417 25.7979 177.592 26.2277 177.588 26.6743V27.8383C177.584 28.285 177.402 28.7117 177.081 29.0247C176.761 29.3377 176.328 29.5114 175.879 29.5078H171.987L171.957 38.0054C171.957 39.6448 172.748 40.5875 174.395 40.5875H175.186C175.636 40.5925 176.065 40.7745 176.38 41.0936C176.695 41.4127 176.869 41.8428 176.866 42.2897V43.4701C176.86 43.9165 176.678 44.3428 176.357 44.6557C176.037 44.9685 175.605 45.1425 175.156 45.1396H173.666C173.391 45.145 173.116 45.1341 172.842 45.1068C168.628 44.8336 166.759 42.1176 166.759 38.0218C166.792 32.5107 166.792 27.0323 166.822 21.5211C166.824 21.2997 166.87 21.0809 166.958 20.8772C167.045 20.6735 167.172 20.4889 167.331 20.3338C167.49 20.1788 167.678 20.0564 167.884 19.9737C168.091 19.891 168.312 19.8495 168.535 19.8517H170.34C170.79 19.856 171.219 20.0374 171.534 20.356C171.849 20.6747 172.023 21.1045 172.02 21.5512V24.9748ZM115.674 24.7535H119.563C120.012 24.7578 120.441 24.9392 120.756 25.2579C121.071 25.5765 121.246 26.0064 121.242 26.453V27.6225C121.237 28.0689 121.054 28.4951 120.734 28.808C120.414 29.1209 119.982 29.2949 119.533 29.2919H115.63V37.7923C115.63 39.4317 116.421 40.3744 118.068 40.3744H118.862C119.084 40.3765 119.304 40.4222 119.509 40.5087C119.713 40.5953 119.899 40.7211 120.054 40.8789C120.21 41.0367 120.333 41.2235 120.416 41.4285C120.499 41.6336 120.541 41.8529 120.539 42.0739V43.2379C120.534 43.6845 120.352 44.1112 120.031 44.4242C119.711 44.7372 119.278 44.911 118.829 44.9073H117.658C113.062 44.8773 110.402 42.9237 110.402 37.8032C110.435 32.2921 110.435 26.811 110.465 21.2998C110.47 20.8529 110.653 20.4262 110.974 20.1133C111.295 19.8004 111.728 19.6267 112.177 19.6303H113.983C114.432 19.6354 114.861 19.8175 115.176 20.1366C115.49 20.4558 115.664 20.8859 115.66 21.3326L115.674 24.7535ZM92.8024 27.147C94.6715 25.4147 96.7 24.3136 99.3276 24.3136C105.031 24.3437 107.977 28.9586 107.944 34.2949L107.914 43.2379C107.915 43.4616 107.871 43.6833 107.785 43.8902C107.7 44.097 107.573 44.2849 107.414 44.4432C107.255 44.6014 107.066 44.7267 106.858 44.812C106.65 44.8973 106.427 44.9408 106.202 44.9401H104.366C104.141 44.9408 103.918 44.8973 103.71 44.812C103.502 44.7267 103.312 44.6014 103.153 44.4432C102.994 44.2849 102.868 44.097 102.782 43.8902C102.696 43.6833 102.653 43.4616 102.653 43.2379L102.686 34.3577C102.686 31.4286 101.103 29.1307 97.9973 29.1307C94.8914 29.1307 92.9921 31.6828 92.9619 34.579L92.9289 43.2379C92.9245 43.6845 92.742 44.1112 92.4215 44.4242C92.101 44.7372 91.6686 44.911 91.2192 44.9073H89.4134C88.9641 44.903 88.5349 44.7216 88.22 44.403C87.9052 44.0843 87.7304 43.6545 87.734 43.2078C87.7643 37.8223 87.7643 32.4068 87.7972 27.0214V26.2973C87.7987 25.8511 87.978 25.4237 88.2959 25.1087C88.6138 24.7938 89.0443 24.6169 89.4931 24.6169H91.0461C91.4873 24.6299 91.9069 24.81 92.2191 25.1203C92.5312 25.4306 92.7124 25.8477 92.7255 26.2864L92.8024 27.147ZM149.256 27.3656C151.125 25.6361 153.151 24.5322 155.781 24.5322C161.484 24.565 164.428 29.1936 164.398 34.5162L164.365 43.4701C164.366 43.6937 164.323 43.9154 164.237 44.1222C164.152 44.329 164.026 44.517 163.867 44.6752C163.708 44.8335 163.519 44.9589 163.311 45.0442C163.103 45.1295 162.88 45.1731 162.655 45.1724H160.819C160.594 45.1731 160.371 45.1296 160.163 45.0443C159.955 44.959 159.766 44.8336 159.607 44.6754C159.448 44.5172 159.322 44.3293 159.236 44.1224C159.15 43.9155 159.106 43.6939 159.107 43.4701L159.14 34.59C159.14 31.6609 157.554 29.363 154.451 29.363C151.348 29.363 149.446 31.9123 149.413 34.8113L149.369 43.4701C149.364 43.917 149.18 44.3437 148.859 44.6566C148.538 44.9696 148.106 45.1432 147.656 45.1396H145.85C145.402 45.1345 144.973 44.9528 144.659 44.6343C144.344 44.3157 144.17 43.8863 144.174 43.4401L144.237 26.5268C144.238 26.3045 144.283 26.0845 144.369 25.8795C144.456 25.6745 144.582 25.4886 144.741 25.3324C144.901 25.1762 145.089 25.0529 145.297 24.9695C145.504 24.8861 145.726 24.8442 145.949 24.8464H147.502C147.945 24.8609 148.366 25.0434 148.677 25.3564C148.989 25.6694 149.169 26.0892 149.179 26.5295L149.256 27.3656ZM75.555 24.1551C69.3761 24.1223 65.0059 28.5624 64.9729 34.6719C64.9426 40.8443 69.2497 45.2243 75.4918 45.2543C81.7338 45.2844 86.1041 40.94 86.1343 34.7266C86.1673 28.658 81.7008 24.1852 75.555 24.1551ZM126.844 36.7841C127.286 39.6175 130.013 40.7815 132.674 40.8143C134.007 40.8027 135.324 40.5132 136.538 39.9645C136.733 39.8854 136.923 39.7942 137.107 39.6913C137.742 39.3443 138.311 39.1257 138.883 39.6913C139.199 40.0055 139.485 40.3225 139.801 40.6039C140.099 40.8871 140.375 41.1931 140.625 41.5192C141.48 42.5876 140.878 42.8417 139.897 43.5029C137.805 44.8882 135.081 45.5795 132.577 45.5795C125.863 45.5494 121.426 41.481 121.426 34.7485C121.459 28.3848 125.893 24.166 132.292 24.1961C138.819 24.2289 142.525 28.0405 142.621 34.5271C142.651 36.2895 142.714 36.8578 140.878 36.8578L126.844 36.7841ZM75.555 28.9094C78.7544 28.9094 80.8763 31.6828 80.8763 34.7375C80.8763 37.918 78.8808 40.4755 75.522 40.4755C72.1632 40.4755 70.2007 37.8934 70.2007 34.7129C70.2007 31.5325 72.2292 28.9094 75.555 28.9094ZM126.984 32.4068L137.503 32.4369C137.121 29.822 134.936 28.7837 132.434 28.7837C129.933 28.7837 127.762 29.9504 126.984 32.4068Z" fill="#29303A"/>
</g>
<defs>
<clipPath id="clip0_306_3416">
<rect width="221" height="65" fill="white"/>
</clipPath>
</defs>
</svg>

<svg width="221" height="65" viewBox="0 0 221 65" fill="none" xmlns="http://www.w3.org/2000/svg"><g clip-path="url(#clip0_306_3416)"><path d="M13.53 43.334a12.466 12.466 0 01-2.705-4.066 12.407 12.407 0 01-.93-4.784c-.004-1.64.321-3.265.956-4.78a12.336 12.336 0 012.741-4.038 4.921 4.921 0 001.659-3.526 4.892 4.892 0 00-1.44-3.62 4.95 4.95 0 00-3.635-1.446 4.972 4.972 0 00-3.554 1.633A22.25 22.25 0 000 34.465a22.248 22.248 0 006.526 15.798 4.946 4.946 0 003.543 1.636 4.973 4.973 0 003.633-1.43 4.917 4.917 0 001.456-3.605 4.896 4.896 0 00-1.629-3.53z" fill="#FFDA00"/><path d="M13.59 25.666a12.625 12.625 0 018.9-3.62 12.624 12.624 0 018.873 3.683 4.945 4.945 0 003.55 1.661 4.973 4.973 0 003.65-1.43 4.916 4.916 0 001.455-3.622 4.894 4.894 0 00-1.654-3.536 22.38 22.38 0 00-7.25-4.877 22.485 22.485 0 00-17.17-.07 22.38 22.38 0 00-7.29 4.819 4.92 4.92 0 00-1.674 3.518 4.892 4.892 0 001.422 3.625 4.95 4.95 0 003.627 1.464 4.973 4.973 0 003.562-1.615z" fill="#67B3FF"/><path d="M31.335 43.396a12.561 12.561 0 01-4.09 2.695 12.622 12.622 0 01-4.816.93 12.474 12.474 0 01-4.809-.955 12.417 12.417 0 01-4.06-2.733 4.946 4.946 0 00-3.548-1.648 4.974 4.974 0 00-3.641 1.43 4.915 4.915 0 00-1.455 3.614 4.894 4.894 0 001.643 3.533 22.42 22.42 0 007.26 4.876 22.527 22.527 0 0017.185.068 22.422 22.422 0 007.298-4.818 4.92 4.92 0 001.467-3.473 4.898 4.898 0 00-1.434-3.486 4.952 4.952 0 00-3.493-1.458 4.975 4.975 0 00-3.507 1.425z" fill="#EB5A68"/><path d="M13.592 25.666a4.975 4.975 0 01-5.4 1.06 4.94 4.94 0 01-2.22-1.822 4.897 4.897 0 01.025-5.472A4.941 4.941 0 018.23 17.63a4.975 4.975 0 015.392 1.106 4.903 4.903 0 011.42 3.471 4.903 4.903 0 01-1.45 3.459z" fill="#47A1FF"/><path d="M13.497 50.263a4.975 4.975 0 01-5.401 1.057 4.942 4.942 0 01-2.218-1.822 4.898 4.898 0 01.026-5.472 4.942 4.942 0 012.235-1.8 4.975 4.975 0 015.391 1.107 4.903 4.903 0 011.42 3.472 4.904 4.904 0 01-1.453 3.458z" fill="#D5465F"/><path d="M60.38 39.303c1.426-1.07 1.616-.472 2.82.724.602.599 2.248 1.64 1.17 2.52-2.247 1.825-4.276 2.645-7.145 2.645-6.495-.03-11.088-4.85-10.72-11.244.157-2.864 1.297-5.574 3.548-7.432 2.06-1.732 4.624-2.487 7.317-2.424a10.04 10.04 0 013.848.754 9.106 9.106 0 012.312 1.23c1.426 1.093.761 1.732-.35 2.833-.252.252-.505.506-.728.757-.569.566-.95.976-1.71.44-1.456-1.008-3.297-1.544-5.037-1.093-5.608 1.416-5.355 11.337 1.522 11.37a5.345 5.345 0 003.153-1.08zm155.865 6.012a1.716 1.716 0 01-1.213-.496 1.699 1.699 0 01-.5-1.204l.097-21.982a1.677 1.677 0 01.498-1.205 1.712 1.712 0 011.211-.497h1.839a1.712 1.712 0 011.583 1.052 1.7 1.7 0 01.127.653l-.097 21.982a1.675 1.675 0 01-.498 1.204 1.701 1.701 0 01-1.211.495l-1.836-.002zm-9.62-2.55c-1.996 1.858-3.898 2.834-6.718 2.834-5.701-.033-8.427-4.725-8.427-9.984l.033-8.943a1.675 1.675 0 01.5-1.204 1.7 1.7 0 011.212-.493h1.839a1.712 1.712 0 011.211.495 1.699 1.699 0 01.499 1.204l-.031 8.943c0 2.93 1.584 5.227 4.69 5.227 3.105 0 5.005-2.582 5.035-5.464v-3.195a1.59 1.59 0 01-.03-.377l.03-5.07a1.676 1.676 0 01.498-1.205 1.704 1.704 0 011.212-.495h1.814a1.711 1.711 0 011.211.495 1.681 1.681 0 01.498 1.204l-.06 16.88a1.682 1.682 0 01-.508 1.187c-.32.313-.752.487-1.202.483h-1.553a1.739 1.739 0 01-1.172-.504 1.72 1.72 0 01-.507-1.165l-.074-.853zm-21.871-17.727h3.548a1.713 1.713 0 011.203.518 1.7 1.7 0 01.477 1.214v1.164a1.709 1.709 0 01-.503 1.196c-.319.318-.75.498-1.201.504h-3.557l-.063 13.888a1.696 1.696 0 01-1.71 1.702h-1.836a1.715 1.715 0 01-1.212-.497 1.685 1.685 0 01-.5-1.205l.063-19.208c0-4.19 2.408-7.498 6.718-7.875.126 0 .219-.03.346-.03.253-.017.508-.017.761 0h1.649a1.713 1.713 0 011.202.517 1.695 1.695 0 01.478 1.213v1.07c-.003.45-.184.882-.504 1.2-.32.319-.753.5-1.206.503h-1.33c-2.029 0-2.883 1.54-2.916 3.432l.093.694zm-12.734-.063h3.889a1.7 1.7 0 011.193.504c.315.319.49.749.486 1.195v1.164a1.677 1.677 0 01-.507 1.187 1.7 1.7 0 01-1.202.483h-3.892l-.03 8.497c0 1.64.791 2.582 2.438 2.582h.791c.45.005.879.188 1.194.507.315.319.489.749.486 1.196v1.18a1.686 1.686 0 01-.509 1.186c-.32.313-.752.486-1.201.484h-1.49a6.935 6.935 0 01-.824-.033c-4.214-.273-6.083-2.99-6.083-7.085.033-5.511.033-10.99.063-16.5a1.683 1.683 0 011.062-1.547c.207-.084.428-.125.651-.123h1.805c.45.004.879.185 1.194.504.315.319.489.748.486 1.195v3.424zm-56.346-.222h3.889a1.7 1.7 0 011.193.505c.315.319.49.748.486 1.195v1.17a1.685 1.685 0 01-.508 1.185c-.32.313-.752.487-1.201.484h-3.903v8.5c0 1.64.791 2.582 2.438 2.582h.794a1.707 1.707 0 011.192.505 1.677 1.677 0 01.485 1.195v1.164a1.682 1.682 0 01-.508 1.186 1.7 1.7 0 01-1.202.483h-1.171c-4.596-.03-7.256-1.983-7.256-7.104.033-5.51.033-10.992.063-16.503.005-.447.188-.874.509-1.187a1.705 1.705 0 011.203-.483h1.806c.449.005.878.188 1.193.507.314.319.488.749.484 1.196l.014 3.42zm-22.872 2.394c1.87-1.732 3.898-2.833 6.526-2.833 5.703.03 8.649 4.645 8.616 9.98l-.03 8.944a1.68 1.68 0 01-.5 1.205 1.706 1.706 0 01-1.212.497h-1.836a1.715 1.715 0 01-1.584-1.05 1.698 1.698 0 01-.129-.652l.033-8.88c0-2.93-1.583-5.227-4.689-5.227s-5.005 2.552-5.035 5.448l-.033 8.659a1.681 1.681 0 01-.508 1.186 1.7 1.7 0 01-1.202.483h-1.806a1.7 1.7 0 01-1.193-.504 1.681 1.681 0 01-.486-1.195c.03-5.386.03-10.801.063-16.187v-.724c.002-.446.181-.873.499-1.188a1.701 1.701 0 011.197-.492h1.553a1.722 1.722 0 011.68 1.669l.076.861zm56.454.219c1.869-1.73 3.895-2.834 6.525-2.834 5.703.033 8.647 4.662 8.617 9.984l-.033 8.954a1.678 1.678 0 01-.498 1.205 1.705 1.705 0 01-1.212.497h-1.836a1.715 1.715 0 01-1.212-.497 1.7 1.7 0 01-.5-1.205l.033-8.88c0-2.93-1.586-5.227-4.689-5.227-3.103 0-5.005 2.55-5.038 5.448l-.044 8.66a1.684 1.684 0 01-.51 1.186 1.703 1.703 0 01-1.203.483h-1.806a1.7 1.7 0 01-1.191-.506 1.676 1.676 0 01-.485-1.194l.063-16.913a1.693 1.693 0 01.504-1.195 1.702 1.702 0 011.208-.486h1.553a1.74 1.74 0 011.175.51c.312.313.492.733.502 1.173l.077.837zm-73.701-3.21c-6.179-.034-10.55 4.406-10.582 10.516-.03 6.172 4.277 10.552 10.519 10.582 6.242.03 10.612-4.314 10.642-10.527.033-6.069-4.433-10.542-10.579-10.572zm51.289 12.628c.442 2.834 3.169 3.998 5.83 4.03a9.587 9.587 0 003.864-.85c.195-.079.385-.17.569-.273.635-.347 1.204-.565 1.776 0 .316.314.602.631.918.913.298.283.574.59.824.915.855 1.069.253 1.323-.728 1.984-2.092 1.385-4.816 2.077-7.32 2.077-6.714-.03-11.151-4.099-11.151-10.831.033-6.364 4.467-10.583 10.866-10.553 6.527.033 10.233 3.845 10.329 10.331.03 1.762.093 2.33-1.743 2.33l-14.034-.073zM75.555 28.91c3.2 0 5.321 2.774 5.321 5.828 0 3.181-1.995 5.738-5.354 5.738s-5.321-2.582-5.321-5.762c0-3.18 2.028-5.804 5.354-5.804zm51.429 3.498l10.519.03c-.382-2.615-2.567-3.653-5.069-3.653-2.501 0-4.672 1.166-5.45 3.623z" fill="#29303A"/></g><defs><clipPath id="clip0_306_3416"><path fill="#fff" d="M0 0h221v65H0z"/></clipPath></defs></svg>
